X: 59
T:Otero Covelo. Curso 3, Ejercicio 5
M:4/4
L:1/8
Q:200
C:E. Otero
K:C
CB,CB, DB,DB, | CB,CB, CB, C2 | ECEB, CEDB,|
CDEC DB,C2| DB,DB, ECEC | DB,EC DB, C2| ECDB, EGFD |
ECDE DB,C2| GDFD EGFE | DEFE DB, C2 :||: CB,DB, CB,EC |
DB,FD EC GE | FDAF GEBG | AFcA GEBG | FEAF ECGE |
DB,FD ECEC | DB,DB, C4 :|
M:12/8
|: CDB, CEC DFD EGE |
FAF GBG AcA B3| AcA GBG FAF EGE | DFD CEC B,DB, C3 :|
|: CEG GEC CEG FDB, | DFA AFD DFA GEC | EGB BGE EGB AFD |
FAc cAF FAc BGE | EGB BGE EGB AFD | DFA AFD DFA GEC |
CEG GEC CEG FDB, | B,DF FDB, B,DB, C3 :| CB,C ECE GEG cAF |
GBG EGE FDF ECE | GEG GEG cAF BGE | AFD FDB, C6 ||

